src/assets/svg/blob-3.svg

<?xml version="1.0" encoding="UTF-8"?>
<svg width="40px" height="40px" viewBox="0 0 40 40" version="1.1" xmlns="http://www.w3.org/2000/svg" xmlns:xlink="http://www.w3.org/1999/xlink">
    <title>Sub-Atomic/Blobs/Blob 3</title>
    <g id="Sub-Atomic/Blobs/Blob-3" stroke="none" stroke-width="1" fill="none" fill-rule="evenodd">
        <path d="M18.8040502,39.9560579 C16.2242083,39.8304035 13.6859684,39.2480729 11.229187,38.460288 C9.60742848,37.9407628 8.01398666,37.2497288 6.57183687,36.3295525 C4.01694766,34.7030429 1.99266637,32.365158 0.908201061,29.4822346 C-0.450787089,25.8675949 -0.0931451818,21.9134145 0.73519248,18.2240601 C1.30403856,15.6892399 2.30870616,13.2172252 3.57452602,10.9642255 C5.1264083,8.20356635 7.28375675,5.81304659 9.90183688,4.08465735 C10.7859137,3.50028393 14.4512003,1.67944676 15.3642752,1.27479696 C16.5485515,0.750186536 17.7960613,0.437767336 19.0635418,0.215362071 C20.2361934,0.00990776405 21.4337977,-0.0155186733 22.6197347,0.00651757239 C23.9204714,0.0319874738 25.2810776,0.230661397 26.5319088,0.593976936 C27.2006085,0.787522108 27.8542769,1.01844632 28.5079878,1.2612362 C29.1633169,1.50228752 29.7821111,1.87581709 30.3958806,2.20857744 C31.603449,2.86053738 32.6596828,3.81300737 33.6609865,4.74513622 C34.5991418,5.61611123 35.4274794,6.69249708 36.1260713,7.77062149 C37.4783742,9.85724099 38.5828102,12.1764363 39.2165505,14.5992498 C39.5641857,15.9320298 39.8453087,17.2749803 39.9434164,18.6519197 C40.0715015,20.4481997 39.9916613,22.2343091 39.6057878,23.9966003 C39.3363322,25.2275441 39.0136071,26.4788291 38.5113159,27.6350148 C37.977344,28.8642636 37.3918486,30.0374437 36.6982387,31.1783736 C35.4407649,33.2463036 33.734184,35.0986087 31.779779,36.4823284 C30.7068958,37.2429484 29.564179,37.8949083 28.3499679,38.3872684 C27.6380481,38.6742177 26.9194855,38.9220929 26.1909588,39.1597975 C25.0132826,39.5434977 23.7641121,39.7217435 22.5415551,39.8779531 C21.8368741,39.9678801 21.1255077,40 20.4143117,40 C19.8765502,40 19.3390015,39.9816582 18.8040502,39.9560579 Z" id="Fill-14" fill="#0062C3"></path>
    </g>
</svg>

<svg width="40" height="40" viewBox="0 0 40 40" xmlns="http://www.w3.org/2000/svg"><g id="Sub-Atomic/Blobs/Blob-3" stroke="none" stroke-width="1" fill-rule="evenodd"><path d="M18.804 39.956c-2.58-.126-5.118-.708-7.575-1.496-1.622-.52-3.215-1.21-4.657-2.13-2.555-1.627-4.58-3.965-5.664-6.848C-.45 25.868-.093 21.913.735 18.224c.569-2.535 1.574-5.007 2.84-7.26 1.551-2.76 3.709-5.151 6.327-6.88.884-.584 4.55-2.405 5.462-2.81C16.55.75 17.796.439 19.064.216c1.172-.205 2.37-.23 3.556-.208 1.3.025 2.661.224 3.912.587.669.194 1.322.424 1.976.667.655.241 1.274.615 1.888.948 1.207.652 2.264 1.604 3.265 2.536.938.871 1.766 1.947 2.465 3.026 1.352 2.086 2.457 4.405 3.09 6.828.348 1.333.63 2.676.727 4.053.129 1.796.049 3.582-.337 5.345-.27 1.23-.592 2.482-1.095 3.638a28.995 28.995 0 0 1-1.813 3.543c-1.257 2.068-2.964 3.92-4.918 5.304a16.982 16.982 0 0 1-3.43 1.905c-.712.287-1.43.535-2.159.773-1.178.383-2.427.562-3.65.718-.704.09-1.415.122-2.127.122-.537 0-1.075-.018-1.61-.044Z" id="Fill-14"/></g></svg>
